img/login-icon.svg

<svg width="16" height="16" viewBox="0 0 16 16" fill="none" xmlns="http://www.w3.org/2000/svg">
<path fill-rule="evenodd" clip-rule="evenodd" d="M9.33334 4.66667C9.33334 3.93133 8.73534 3.33333 8.00001 3.33333C7.26468 3.33333 6.66668 3.93133 6.66668 4.66667C6.66668 5.402 7.26468 6 8.00001 6C8.73534 6 9.33334 5.402 9.33334 4.66667ZM10.6667 4.66667C10.6667 6.13733 9.47068 7.33333 8.00001 7.33333C6.52934 7.33333 5.33334 6.13733 5.33334 4.66667C5.33334 3.196 6.52934 2 8.00001 2C9.47068 2 10.6667 3.196 10.6667 4.66667ZM3.33334 13.3333C3.33334 10.76 5.42734 8.66667 8.00001 8.66667C10.5727 8.66667 12.6667 10.76 12.6667 13.3333C12.6667 13.7013 12.3687 14 12 14C11.6313 14 11.3333 13.7013 11.3333 13.3333C11.3333 11.4953 9.83801 10 8.00001 10C6.16201 10 4.66668 11.4953 4.66668 13.3333C4.66668 13.7013 4.36868 14 4.00001 14C3.63134 14 3.33334 13.7013 3.33334 13.3333Z" fill="#231F20"/>
<mask id="mask0" mask-type="alpha" maskUnits="userSpaceOnUse" x="3" y="2" width="10" height="12">
<path fill-rule="evenodd" clip-rule="evenodd" d="M9.33334 4.66667C9.33334 3.93133 8.73534 3.33333 8.00001 3.33333C7.26468 3.33333 6.66668 3.93133 6.66668 4.66667C6.66668 5.402 7.26468 6 8.00001 6C8.73534 6 9.33334 5.402 9.33334 4.66667ZM10.6667 4.66667C10.6667 6.13733 9.47068 7.33333 8.00001 7.33333C6.52934 7.33333 5.33334 6.13733 5.33334 4.66667C5.33334 3.196 6.52934 2 8.00001 2C9.47068 2 10.6667 3.196 10.6667 4.66667ZM3.33334 13.3333C3.33334 10.76 5.42734 8.66667 8.00001 8.66667C10.5727 8.66667 12.6667 10.76 12.6667 13.3333C12.6667 13.7013 12.3687 14 12 14C11.6313 14 11.3333 13.7013 11.3333 13.3333C11.3333 11.4953 9.83801 10 8.00001 10C6.16201 10 4.66668 11.4953 4.66668 13.3333C4.66668 13.7013 4.36868 14 4.00001 14C3.63134 14 3.33334 13.7013 3.33334 13.3333Z" fill="white"/>
</mask>
<g mask="url(#mask0)">
<rect width="16" height="16" fill="black"/>
</g>
</svg>

<svg width="16" height="16" fill="none" xmlns="http://www.w3.org/2000/svg"><path fill-rule="evenodd" clip-rule="evenodd" d="M9.333 4.667c0-.736-.598-1.334-1.333-1.334s-1.333.598-1.333 1.334C6.667 5.402 7.265 6 8 6s1.333-.598 1.333-1.333zm1.334 0A2.67 2.67 0 018 7.333a2.67 2.67 0 01-2.667-2.666A2.67 2.67 0 018 2a2.67 2.67 0 012.667 2.667zm-7.334 8.666A4.672 4.672 0 018 8.667a4.672 4.672 0 014.667 4.666.667.667 0 11-1.334 0A3.337 3.337 0 008 10a3.337 3.337 0 00-3.333 3.333.667.667 0 11-1.334 0z" fill="#231F20"/><mask id="a" maskUnits="userSpaceOnUse" x="3" y="2" width="10" height="12"><path fill-rule="evenodd" clip-rule="evenodd" d="M9.333 4.667c0-.736-.598-1.334-1.333-1.334s-1.333.598-1.333 1.334C6.667 5.402 7.265 6 8 6s1.333-.598 1.333-1.333zm1.334 0A2.67 2.67 0 018 7.333a2.67 2.67 0 01-2.667-2.666A2.67 2.67 0 018 2a2.67 2.67 0 012.667 2.667zm-7.334 8.666A4.672 4.672 0 018 8.667a4.672 4.672 0 014.667 4.666.667.667 0 11-1.334 0A3.337 3.337 0 008 10a3.337 3.337 0 00-3.333 3.333.667.667 0 11-1.334 0z" fill="#fff"/></mask><g mask="url(#a)"><path fill="#000" d="M0 0h16v16H0z"/></g></svg>
